docs/svgs/iris.svg

<svg viewBox="0 0 24 24" height="24px" width="24px" fill="#44739e" xmlns="http://www.w3.org/2000/svg"><title>hue:iris</title><desc>Source: https://github.com/arallsopp/hass-hue-icons</desc><path d="M 19.199219 13.746094 C 18.046875 13.371094 16.351562 12.265625 14.058594 9.96875 C 12.214844 8.125 10.769531 6.09375 10.300781 4.84375 C 10.199219 4.574219 10.441406 4.300781 10.726562 4.355469 C 11.015625 4.410156 11.414062 4.53125 11.925781 4.773438 C 13.3125 5.417969 14.585938 6.253906 16.179688 7.847656 C 17.769531 9.4375 18.605469 10.710938 19.25 12.097656 C 19.496094 12.621094 19.617188 13.023438 19.671875 13.316406 C 19.722656 13.59375 19.464844 13.832031 19.199219 13.746094 M 16.527344 16.882812 C 16.476562 17.039062 16.332031 17.140625 16.171875 17.140625 C 16.132812 17.140625 16.09375 17.136719 16.058594 17.125 C 15.027344 16.789062 13.742188 15.957031 12.289062 14.683594 C 10.566406 15.628906 7.75 16.746094 7.820312 17.226562 C 7.960938 18.148438 7.410156 18.65625 6.371094 17.617188 C 5.332031 16.578125 5.839844 16.027344 6.761719 16.164062 C 7.242188 16.238281 8.367188 13.386719 9.316406 11.667969 C 8.183594 10.320312 7.289062 8.964844 6.925781 8 C 6.851562 7.804688 6.953125 7.589844 7.144531 7.515625 C 7.335938 7.441406 7.554688 7.539062 7.628906 7.734375 C 8.101562 8.996094 9.574219 11.003906 11.296875 12.726562 C 13.824219 15.253906 15.40625 16.125 16.289062 16.410156 C 16.484375 16.472656 16.59375 16.683594 16.527344 16.882812 M 20.433594 11.796875 C 18.996094 8.707031 15.308594 4.992188 12.25 3.554688 C 11.003906 2.96875 10.078125 2.867188 9.511719 3.15625 C 9.441406 3.199219 9.375 3.246094 9.304688 3.292969 C 8.550781 3.792969 7.820312 4.371094 7.140625 5.046875 C 2.910156 9.269531 1.238281 14.449219 5.414062 18.613281 C 9.53125 22.726562 14.773438 21.113281 19.003906 16.890625 C 19.671875 16.222656 20.242188 15.503906 20.738281 14.765625 C 20.769531 14.71875 20.800781 14.671875 20.828125 14.625 C 21.140625 14.058594 21.039062 13.09375 20.433594 11.796875 "/></svg>

<svg viewBox="0 0 24 24" height="24px" width="24px" fill="#44739e" xmlns="http://www.w3.org/2000/svg"><title>hue:iris</title><desc>Source: https://github.com/arallsopp/hass-hue-icons</desc><path d="M19.2,13.75c-1.15-0.38-2.85-1.48-5.14-3.78c-1.84-1.84-3.29-3.88-3.76-5.12c-0.1-0.27,0.14-0.54,0.43-0.49 c0.29,0.05,0.69,0.18,1.2,0.42c1.39,0.64,2.66,1.48,4.25,3.07c1.59,1.59,2.43,2.86,3.07,4.25c0.25,0.52,0.37,0.93,0.42,1.22 C19.72,13.59,19.46,13.83,19.2,13.75 M16.53,16.88c-0.05,0.16-0.2,0.26-0.36,0.26c-0.04,0-0.08,0-0.11-0.02 c-1.03-0.34-2.32-1.17-3.77-2.44c-1.72,0.95-4.54,2.06-4.47,2.54c0.14,0.92-0.41,1.43-1.45,0.39c-1.04-1.04-0.53-1.59,0.39-1.45 c0.48,0.07,1.61-2.78,2.55-4.5C8.18,10.32,7.29,8.96,6.93,8C6.85,7.8,6.95,7.59,7.14,7.52c0.19-0.07,0.41,0.02,0.48,0.22 C8.1,9,9.57,11,11.3,12.73c2.53,2.53,4.11,3.4,4.99,3.68C16.48,16.47,16.59,16.68,16.53,16.88 M20.43,11.8 c-1.44-3.09-5.12-6.8-8.18-8.24C11,2.97,10.08,2.87,9.51,3.16C9.44,3.2,9.38,3.25,9.3,3.29c-0.75,0.5-1.48,1.08-2.16,1.75 c-4.23,4.22-5.9,9.4-1.73,13.57c4.12,4.11,9.36,2.5,13.59-1.72c0.67-0.67,1.24-1.39,1.73-2.12c0.03-0.05,0.06-0.09,0.09-0.14 C21.14,14.06,21.04,13.09,20.43,11.8"/></svg>
